build/system/DiscsOutline.svg

<svg xmlns="http://www.w3.org/2000/svg" fill="none" viewBox="0 0 24 24" focusable="false"><path d="M0 0H24V24H0z"/><path fill="#74767B" fill-rule="evenodd" d="M6.95068 4.10303C5.29383 4.10303 3.95068 5.44617 3.95068 7.10303L3.95068 8.0646C3.95068 9.72146 5.29383 11.0646 6.95068 11.0646L17.0145 11.0646C18.6713 11.0646 20.0145 9.72146 20.0145 8.0646L20.0145 7.10303C20.0145 5.44617 18.6713 4.10303 17.0145 4.10303L6.95068 4.10303ZM17.0145 5.40303L6.95068 5.40303C6.0118 5.40303 5.25068 6.16414 5.25068 7.10303L5.25068 8.0646C5.25068 9.00349 6.0118 9.7646 6.95068 9.7646L17.0145 9.7646C17.9534 9.7646 18.7145 9.00349 18.7145 8.0646L18.7145 7.10303C18.7145 6.16414 17.9534 5.40303 17.0145 5.40303ZM14.6839 7.58384C14.6839 7.22485 14.9749 6.93384 15.3339 6.93384L16.7798 6.93384C17.1387 6.93384 17.4298 7.22485 17.4298 7.58384C17.4298 7.94282 17.1387 8.23384 16.7798 8.23384L15.3339 8.23384C14.9749 8.23384 14.6839 7.94282 14.6839 7.58384ZM6.95068 12.9368C5.29383 12.9368 3.95068 14.2799 3.95068 15.9368L3.95068 16.8983C3.95068 18.5552 5.29383 19.8983 6.95068 19.8983L17.0145 19.8983C18.6713 19.8983 20.0145 18.5552 20.0145 16.8983L20.0145 15.9368C20.0145 14.2799 18.6713 12.9368 17.0145 12.9368L6.95068 12.9368ZM17.0145 14.2368L6.95068 14.2368C6.0118 14.2368 5.25068 14.9979 5.25068 15.9368L5.25068 16.8983C5.25068 17.8372 6.0118 18.5983 6.95068 18.5983L17.0145 18.5983C17.9534 18.5983 18.7145 17.8372 18.7145 16.8983L18.7145 15.9368C18.7145 14.9979 17.9534 14.2368 17.0145 14.2368ZM15.3339 15.7675C14.9749 15.7675 14.6839 16.0585 14.6839 16.4175C14.6839 16.7764 14.9749 17.0675 15.3339 17.0675L16.7798 17.0675C17.1387 17.0675 17.4298 16.7764 17.4298 16.4175C17.4298 16.0585 17.1387 15.7675 16.7798 15.7675L15.3339 15.7675Z"/></svg>

<svg xmlns="http://www.w3.org/2000/svg" fill="none" viewBox="0 0 24 24" focusable="false"><path fill="#74767B" fill-rule="evenodd" d="M6.95 4.1c-1.66 0-3 1.34-3 3v.96c0 1.66 1.34 3 3 3h10.06c1.66 0 3-1.34 3-3V7.1c0-1.66-1.34-3-3-3zm10.06 1.3H6.95c-.94 0-1.7.76-1.7 1.7v.96c0 .94.76 1.7 1.7 1.7h10.06c.94 0 1.7-.76 1.7-1.7V7.1c0-.94-.76-1.7-1.7-1.7m-1.68 1.53c-.36 0-.65.29-.65.65s.29.65.65.65h1.44c.36 0 .65-.29.65-.65s-.29-.65-.65-.65zm-8.38 6c-1.66 0-3 1.34-3 3v.96c0 1.66 1.34 3 3 3h10.06c1.66 0 3-1.34 3-3v-.96c0-1.66-1.34-3-3-3zm10.06 1.3H6.95c-.94 0-1.7.76-1.7 1.7v.96c0 .94.76 1.7 1.7 1.7h10.06c.94 0 1.7-.76 1.7-1.7v-.96c0-.94-.76-1.7-1.7-1.7m-1.68 1.53c-.36 0-.65.29-.65.65s.29.65.65.65h1.44c.36 0 .65-.29.65-.65s-.29-.65-.65-.65z"/></svg>
